src/images/linkedin.svg

<svg xmlns="http://www.w3.org/2000/svg" width="375" viewBox="0 0 375 375" height="375" version="1.0"><path fill="#FFF" d="M-37.5 -37.5H412.5V412.5H-37.5z"/><path fill="#FFF" d="M-37.5 -37.5H412.5V412.5H-37.5z"/><path fill="#88C3FF" d="M-37.5 -37.5H412.5V412.5H-37.5z"/><path fill="#FFF" d="M 25.796875 -34.136719 C -7.101562 -34.136719 -34.136719 -7.101562 -34.136719 25.796875 L -34.136719 349.308594 C -34.136719 382.074219 -7.101562 409.109375 25.796875 409.109375 L 349.308594 409.109375 C 382.074219 409.109375 409.109375 382.074219 409.109375 349.308594 L 409.109375 25.796875 C 409.109375 -7.101562 382.074219 -34.136719 349.308594 -34.136719 Z M 25.796875 -0.0429688 L 349.308594 -0.0429688 C 363.695312 -0.0429688 375.015625 11.277344 375.015625 25.796875 L 375.015625 349.308594 C 375.015625 363.695312 363.695312 375.015625 349.308594 375.015625 L 25.796875 375.015625 C 11.277344 375.015625 -0.0429688 363.695312 -0.0429688 349.308594 L -0.0429688 25.796875 C -0.0429688 11.277344 11.277344 -0.0429688 25.796875 -0.0429688 Z M 68.148438 34.054688 C 49.371094 34.054688 34.054688 49.371094 34.054688 68.148438 C 34.054688 86.929688 49.371094 102.246094 68.148438 102.246094 C 86.929688 102.246094 102.246094 86.929688 102.246094 68.148438 C 102.246094 49.371094 86.929688 34.054688 68.148438 34.054688 Z M 34.054688 136.34375 L 34.054688 340.917969 L 102.246094 340.917969 L 102.246094 136.34375 Z M 136.34375 136.34375 L 136.34375 340.917969 L 204.535156 340.917969 L 204.535156 249.550781 C 204.535156 221.183594 207.199219 195.742188 241.292969 195.742188 C 274.859375 195.742188 272.726562 226.242188 272.726562 251.417969 L 272.726562 340.917969 L 340.917969 340.917969 L 340.917969 239.960938 C 340.917969 181.359375 328.664062 136.34375 262.203125 136.34375 C 230.238281 136.34375 214.125 149.128906 205.332031 166.175781 L 204.535156 166.175781 L 204.535156 136.34375 Z M 136.34375 136.34375"/></svg>

<svg xmlns="http://www.w3.org/2000/svg" width="375" height="375" version="1.0"><path fill="#FFF" d="M-37.5-37.5h450v450h-450z"/><path fill="#FFF" d="M-37.5-37.5h450v450h-450z"/><path fill="#88C3FF" d="M-37.5-37.5h450v450h-450z"/><path fill="#FFF" d="M25.797-34.137c-32.899 0-59.934 27.035-59.934 59.934v323.512c0 32.765 27.035 59.8 59.934 59.8h323.512c32.765 0 59.8-27.035 59.8-59.8V25.797c0-32.899-27.035-59.934-59.8-59.934Zm0 34.094h323.512c14.386 0 25.707 11.32 25.707 25.84v323.512c0 14.386-11.32 25.707-25.707 25.707H25.797c-14.52 0-25.84-11.32-25.84-25.707V25.797c0-14.52 11.32-25.84 25.84-25.84Zm42.351 34.098c-18.777 0-34.093 15.316-34.093 34.093 0 18.782 15.316 34.098 34.093 34.098 18.782 0 34.098-15.316 34.098-34.098 0-18.777-15.316-34.093-34.098-34.093ZM34.055 136.344v204.574h68.191V136.344Zm102.289 0v204.574h68.191v-91.367c0-28.367 2.664-53.809 36.758-53.809 33.566 0 31.434 30.5 31.434 55.676v89.5h68.191V239.961c0-58.602-12.254-103.617-78.715-103.617-31.965 0-48.078 12.785-56.871 29.832h-.797v-29.832Zm0 0"/></svg>
